source/img/user-pic.svg

<svg width="44" height="44" viewBox="0 0 44 44" fill="none" xmlns="http://www.w3.org/2000/svg">
<g filter="url(#filter0_d)">
<circle cx="22" cy="22" r="17" fill="white"/>
</g>
<path d="M23.0312 11C18.4814 11 14.7812 14.7001 14.7812 19.25V20.4627L12.7916 24.442C12.6844 24.6551 12.6967 24.9081 12.8219 25.1103C12.947 25.3124 13.1684 25.4375 13.4062 25.4375H14.7812V28.7485C14.7812 29.1528 14.9572 29.5336 15.2666 29.7949C15.576 30.0561 15.9775 30.1702 16.379 30.1029L18.9062 29.6849V32.3125C18.9062 32.5146 18.9942 32.7071 19.1496 32.8364C19.2747 32.9422 19.4315 33 19.5937 33C19.6309 33 19.6694 32.9972 19.7065 32.9904L27.9565 31.6154C28.2879 31.5604 28.5312 31.2744 28.5312 30.9375V26.7011C28.5312 25.7441 29.0015 24.9769 29.3961 24.4998C30.6116 23.0312 31.2812 21.1667 31.2812 19.25C31.2812 14.7001 27.5811 11 23.0312 11Z" fill="#231651"/>
<defs>
<filter id="filter0_d" x="0" y="0" width="44" height="44" filterUnits="userSpaceOnUse" color-interpolation-filters="sRGB">
<feFlood flood-opacity="0" result="BackgroundImageFix"/>
<feColorMatrix in="SourceAlpha" type="matrix" values="0 0 0 0 0 0 0 0 0 0 0 0 0 0 0 0 0 0 127 0" result="hardAlpha"/>
<feOffset/>
<feGaussianBlur stdDeviation="2.5"/>
<feColorMatrix type="matrix" values="0 0 0 0 0 0 0 0 0 0 0 0 0 0 0 0 0 0 0.25 0"/>
<feBlend mode="normal" in2="BackgroundImageFix" result="effect1_dropShadow"/>
<feBlend mode="normal" in="SourceGraphic" in2="effect1_dropShadow" result="shape"/>
</filter>
</defs>
</svg>

<svg width="44" height="44" fill="none" xmlns="http://www.w3.org/2000/svg"><g filter="url(#filter0_d)"><circle cx="22" cy="22" r="17" fill="#fff"/></g><path d="M23.031 11c-4.55 0-8.25 3.7-8.25 8.25v1.213l-1.99 3.979a.69.69 0 00.615.995h1.375v3.311c0 .405.176.786.486 1.047.309.261.71.375 1.112.308l2.527-.418v2.628a.687.687 0 00.8.678l8.25-1.376a.687.687 0 00.575-.677V26.7c0-.957.47-1.724.865-2.201A8.249 8.249 0 0023.031 11z" fill="#231651"/><defs><filter id="filter0_d" x="0" y="0" width="44" height="44" filterUnits="userSpaceOnUse" color-interpolation-filters="sRGB"><feFlood flood-opacity="0" result="BackgroundImageFix"/><feColorMatrix in="SourceAlpha" values="0 0 0 0 0 0 0 0 0 0 0 0 0 0 0 0 0 0 127 0" result="hardAlpha"/><feOffset/><feGaussianBlur stdDeviation="2.5"/><feColorMatrix values="0 0 0 0 0 0 0 0 0 0 0 0 0 0 0 0 0 0 0.25 0"/><feBlend in2="BackgroundImageFix" result="effect1_dropShadow"/><feBlend in="SourceGraphic" in2="effect1_dropShadow" result="shape"/></filter></defs></svg>
